projects/icons/src/tuiIconElectron.svg

<svg xmlns="http://www.w3.org/2000/svg" id="tuiIconElectron" viewBox="0 0 32 32">
    <g transform="translate(0, 12)">
        <polygon fill="#1a1f71" points="11.2571152 9.30231418 12.8746182 0.158896552 15.4617212 0.158896552 13.843103 9.30231418"></polygon>
        <path d="M23.2261818,0.384023353 C22.7136,0.198784163 21.910497,0 20.9074909,0 C18.3511758,0 16.5504485,1.24011239 16.5351273,3.01744645 C16.5207273,4.33126218 17.8206545,5.06418537 18.8019879,5.50154789 C19.8089697,5.94969969 20.1475394,6.23554534 20.1427394,6.63572925 C20.1363394,7.24861595 19.3385697,7.52862324 18.5949576,7.52862324 C17.5594667,7.52862324 17.0093576,7.39004415 16.1597576,7.04866411 L15.8263758,6.90331253 L15.4632727,8.95019157 C16.0675394,9.20539756 17.1849212,9.42655428 18.3451152,9.43799745 C21.0645818,9.43799745 22.8300121,8.21208393 22.8500848,6.31415289 C22.8598303,5.27403904 22.1705697,4.48245211 20.6780121,3.82991133 C19.7737212,3.4069345 19.2199273,3.12468528 19.2257939,2.69638387 C19.2257939,2.3163306 19.6945455,1.90993468 20.7073455,1.90993468 C21.5533576,1.89727714 22.1661576,2.07499653 22.6436364,2.26023572 L22.8754909,2.3657464 L23.2261818,0.384023353" fill="#1a1f71"></path>
        <path d="M29.8602182,0.167630724 L27.8611394,0.167630724 C27.2418424,0.167630724 26.7784242,0.330450648 26.5064242,0.925869002 L22.6642424,9.30521 L25.380897,9.30521 C25.380897,9.30521 25.8251152,8.17854844 25.9255758,7.9311892 C26.2224485,7.9311892 28.8615273,7.93511257 29.2388364,7.93511257 C29.3162182,8.25519431 29.5536,9.30521 29.5536,9.30521 L31.9541818,9.30521 L29.8602182,0.167630724 Z M26.6700606,6.06100201 C26.8840242,5.53419595 27.7008,3.5050655 27.7008,3.5050655 C27.6855273,3.52939974 27.9131636,2.97569057 28.0438303,2.63239555 L28.2187152,3.42071301 C28.2187152,3.42071301 28.7140848,5.60327531 28.8176,6.0609553 L26.6700606,6.0609553 L26.6700606,6.06100201 Z" fill="#1a1f71"></path>
        <path d="M9.08727273,0.165575625 L6.55442424,6.4007006 L6.28455758,5.13359168 C5.81304242,3.67288305 4.34395152,2.09036307 2.70157576,1.29807553 L5.01755152,9.29442073 L7.75476364,9.29138478 L11.8276848,0.165575625 L9.08727273,0.165575625" fill="#1a1f71"></path>
        <path d="M4.20470303,0.159924101 L0.0330181818,0.159924101 L0,0.35016092 C3.24552727,1.10699799 5.39306667,2.93598978 6.28450909,5.13359168 L5.37740606,0.931847473 C5.2208,0.352869914 4.76659394,0.180101441 4.20470303,0.159924101" fill="#1a1f71"></path>
    </g>
    <g transform="translate(9, 24)" fill="#1a1f71">
        <path d="M2.85521183,2.39259344 L1.20764767,2.39259344 L1.20764767,3.85941662 L3.05066394,3.85941662 L3.05066394,4.30044437 L0.652371739,4.30044437 L0.652371739,0.230975125 L2.95614197,0.230975125 L2.95614197,0.672002875 L1.20764767,0.672002875 L1.20764767,1.95769525 L2.85521183,1.95769525 L2.85521183,2.39259344 Z M3.90184108,0.01386325 L4.4571172,0.01386325 L4.4571172,4.30032175 L3.90184108,4.30032175 L3.90184108,0.01386325 Z M5.85786699,2.93577156 C5.87036305,3.654472 6.34393377,3.95022719 6.90529738,3.95022719 C7.30325057,3.95022719 7.5493279,3.88372056 7.75150848,3.799438 L7.85243863,4.17978231 C7.65666622,4.26406488 7.31606713,4.3667365 6.82968005,4.3667365 C5.88958798,4.3667365 5.32790387,3.76909638 5.32790387,2.88765381 C5.32790387,2.00621125 5.87036305,1.31785263 6.7604707,1.31785263 C7.76400454,1.31785263 8.02289842,2.15117744 8.02289842,2.6884405 C8.02289842,2.79693513 8.01649024,2.8753945 8.00367369,2.93577156 L5.85786699,2.93577156 Z M7.48620642,2.55542725 C7.4926146,2.22350725 7.34105924,1.69819684 6.71625365,1.69819684 C6.14816136,1.69819684 5.90817191,2.18734225 5.86395487,2.55542725 L7.48620642,2.55542725 Z M11.0448424,4.19768087 C10.8996952,4.2641875 10.5776801,4.36685894 10.1675513,4.36685894 C9.24604339,4.36685894 8.64655041,3.769219 8.64655041,2.87551712 C8.64655041,1.97599225 9.28993993,1.31797516 10.2873859,1.31797516 C10.6154889,1.31797516 10.9057831,1.39612816 11.0573387,1.474894 L10.9314162,1.87945037 C10.7984448,1.81294375 10.5901763,1.74030747 10.2873859,1.74030747 C9.58664248,1.74030747 9.20823472,2.24140562 9.20823472,2.84548187 C9.20823472,3.52158137 9.66258051,3.9380905 10.2684815,3.9380905 C10.5840884,3.9380905 10.7923571,3.86576087 10.9500002,3.79925425 L11.0448424,4.19768087 Z M12.6027871,0.677917937 L12.6027871,1.37822959 L13.397732,1.37822959 L13.397732,1.7824795 L12.6027871,1.7824795 L12.6027871,3.35841025 C12.6027871,3.72097881 12.7101257,3.92601512 13.0193243,3.92601512 C13.1705591,3.92601512 13.2593137,3.91406237 13.3413394,3.88954375 L13.366652,4.29440669 C13.2593137,4.3305715 13.0888539,4.3667365 12.8741771,4.3667365 C12.6152832,4.3667365 12.4070147,4.28214737 12.2746841,4.1436175 C12.1231287,3.98026262 12.0600075,3.72097881 12.0600075,3.37679931 L12.0600075,1.7824795 L11.5864367,1.7824795 L11.5864367,1.37822959 L12.0600075,1.37822959 L12.0600075,0.834836781 L12.6027871,0.677917937 Z M14.1735804,2.28995238 C14.1735804,1.94577306 14.1668517,1.65001788 14.1482678,1.37816828 L14.6343343,1.37816828 L14.659647,1.957726 L14.6782311,1.957726 C14.8172902,1.56542884 15.1578895,1.31779131 15.5302094,1.31779131 C15.587243,1.31779131 15.63146,1.32392097 15.6820852,1.32974406 L15.6820852,1.83114888 C15.6250516,1.81888956 15.568659,1.81888956 15.4924007,1.81888956 C15.1014967,1.81888956 14.8233781,2.09656225 14.7477605,2.49529544 C14.7352645,2.56762525 14.7288563,2.65803738 14.7288563,2.74293306 L14.7288563,4.30047513 L14.1735804,4.30047513 L14.1735804,2.28995238 Z M19.0958624,2.8151095 C19.0958624,3.89576537 18.3066849,4.36682837 17.574541,4.36682837 C16.7539632,4.36682837 16.1105737,3.78696437 16.1105737,2.86353362 C16.1105737,1.89137256 16.785684,1.3179445 17.6251664,1.3179445 C18.5024573,1.3179445 19.0958624,1.92753737 19.0958624,2.8151095 Z M16.6783457,2.84545131 C16.6783457,3.485386 17.0570739,3.96840156 17.5998536,3.96840156 C18.1301374,3.96840156 18.5274498,3.49120919 18.5274498,2.833192 C18.5274498,2.3382235 18.2688762,1.71606475 17.6123498,1.71606475 C16.9625521,1.71606475 16.6783457,2.29592894 16.6783457,2.84545131 Z M19.9469439,2.16901469 C19.9469439,1.86130675 19.940215,1.61979878 19.9216313,1.37829081 L20.4137855,1.37829081 L20.4455065,1.86130675 L20.4580026,1.86130675 C20.6095581,1.58945706 20.9629738,1.31791384 21.4679448,1.31791384 C21.8905696,1.31791384 22.5470962,1.55942181 22.5470962,2.56131175 L22.5470962,4.30029119 L21.9918202,4.30029119 L21.9918202,2.61586563 C21.9918202,2.14510919 21.8088644,1.75250556 21.2849889,1.75250556 C20.9251651,1.75250556 20.6409586,2.000143 20.5403488,2.29589838 C20.5147159,2.362405 20.5022196,2.45281713 20.5022196,2.54353581 L20.5022196,4.30029119 L19.9469439,4.30029119 L19.9469439,2.16901469 Z"></path>
    </g>
</svg>

<svg xmlns="http://www.w3.org/2000/svg" id="tuiIconElectron" viewBox="0 0 32 32"><g fill="#1a1f71"><path d="M11.257 9.302L12.875.16h2.587l-1.619 9.143zM23.226.384A6.909 6.909 0 0020.907 0c-2.556 0-4.357 1.24-4.372 3.017-.014 1.314 1.286 2.047 2.267 2.485 1.007.448 1.346.734 1.34 1.134-.006.613-.803.893-1.547.893-1.036 0-1.586-.139-2.435-.48l-.334-.146-.363 2.047c.605.255 1.722.477 2.882.488 2.72 0 4.485-1.226 4.505-3.124.01-1.04-.68-1.832-2.172-2.484-.904-.423-1.458-.705-1.452-1.134 0-.38.469-.786 1.481-.786a4.93 4.93 0 011.937.35l.231.106.351-1.982M29.86.168h-1.999c-.62 0-1.083.162-1.355.758l-3.842 8.38h2.717s.444-1.127.545-1.375l3.313.004c.077.32.315 1.37.315 1.37h2.4L29.86.168zM26.67 6.06c.214-.527 1.03-2.556 1.03-2.556-.014.024.213-.53.344-.873l.175.789.599 2.64H26.67zM9.087.166L6.554 6.4l-.27-1.267c-.471-1.461-1.94-3.044-3.582-3.836l2.316 7.996 2.737-.003L11.828.166h-2.74" transform="translate(0 12)"/><path d="M4.205.16H.033L0 .35c3.246.757 5.393 2.586 6.285 4.784L5.377.932C5.221.352 4.767.18 4.205.16" transform="translate(0 12)"/></g><path fill="#1a1f71" d="M2.855 2.393H1.208v1.466H3.05V4.3H.652V.231h2.304v.441H1.208v1.286h1.647v.435zM3.902.013h.555V4.3h-.555V.014zm1.956 2.923c.012.718.486 1.014 1.047 1.014.398 0 .644-.066.847-.15l.1.38a2.591 2.591 0 01-1.022.187c-.94 0-1.502-.598-1.502-1.48 0-.88.542-1.57 1.432-1.57 1.004 0 1.263.834 1.263 1.371 0 .109-.007.187-.02.248H5.859zm1.628-.38c.007-.332-.145-.858-.77-.858-.568 0-.808.49-.852.857h1.622zm3.559 1.642a2.237 2.237 0 01-.877.169c-.922 0-1.521-.598-1.521-1.491 0-.9.643-1.558 1.64-1.558.328 0 .619.078.77.157l-.126.404a1.412 1.412 0 00-.644-.139c-.7 0-1.079.501-1.079 1.105 0 .677.455 1.093 1.06 1.093.316 0 .524-.072.682-.139l.095.399zm1.558-3.52v.7h.795v.404h-.795v1.576c0 .363.107.568.416.568.152 0 .24-.012.322-.036l.026.404a1.58 1.58 0 01-.493.073c-.259 0-.467-.085-.6-.223-.15-.164-.214-.423-.214-.767V1.782h-.474v-.404h.474V.835l.543-.157zm1.57 1.612c0-.344-.006-.64-.025-.912h.486l.026.58h.018c.14-.393.48-.64.852-.64.057 0 .101.006.152.012v.501c-.057-.012-.113-.012-.19-.012-.39 0-.669.278-.744.676a1.533 1.533 0 00-.02.248V4.3h-.554V2.29zm4.923.525c0 1.08-.79 1.552-1.521 1.552-.821 0-1.464-.58-1.464-1.503 0-.973.675-1.546 1.514-1.546.877 0 1.47.61 1.47 1.497zm-2.418.03c0 .64.38 1.123.922 1.123.53 0 .927-.477.927-1.135 0-.495-.258-1.117-.915-1.117-.65 0-.934.58-.934 1.13zm3.269-.676c0-.308-.007-.55-.025-.79h.492l.032.482h.012c.152-.272.505-.543 1.01-.543.423 0 1.08.241 1.08 1.243v1.74h-.556V2.615c0-.47-.183-.863-.707-.863a.796.796 0 00-.745.543.724.724 0 00-.038.248V4.3h-.555V2.17z" transform="translate(9 24)"/></svg>
